X: 13482
T: Flower Of The Flock, The
R: reel
M: 4/4
K: Gmajor
|:DEGA B~G3|cGBG AGEG|DEGD ~G3e|1 dBAD ~G3E:|2 dBAD ~G3e||
~g3 e dGBG|~A3G AGef|~g3 e d2 (3Bcd|eaag agef|
~g3 e dGBG|AcBG AGEA|DEGD B2 Be|dBAD ~G3E||

